X: 9709
T: Decoherence
R: polka
M: 2/4
K: Aminor
|:c/B/|Ae Ad|B/c/B/A/ BE|GB EG/B/|d/e/d/c/ BA/^G/|
A/A/e Ad|B>c BE|GB EG/B/|A2- A:|
|:B/^G/|:Aa A/A/g|e>d cE|dB B/c/B/E/|GB E/E/G/B/|
A/A/a Ag|e/f/e/c/ AE|dB B/c/B/G/|A/A/e/c/ A:|

